packages/rn-bitcoin-icons/svg/filled/trash.svg

<svg width="24" height="24" viewBox="0 0 24 24" fill="none" xmlns="http://www.w3.org/2000/svg">
<path fill-rule="evenodd" clip-rule="evenodd" d="M5.25 6.90909C5.25 6.49487 5.58579 6.15909 6 6.15909H18C18.4142 6.15909 18.75 6.49487 18.75 6.90909C18.75 7.3233 18.4142 7.65909 18 7.65909H6C5.58579 7.65909 5.25 7.3233 5.25 6.90909Z" fill="black"/>
<path fill-rule="evenodd" clip-rule="evenodd" d="M11.3333 4.75C10.643 4.75 10.0833 5.30964 10.0833 6V6.90909H8.58334V6C8.58334 4.48122 9.81455 3.25 11.3333 3.25H12.6667C14.1855 3.25 15.4167 4.48122 15.4167 6V6.90909H13.9167V6C13.9167 5.30964 13.357 4.75 12.6667 4.75H11.3333Z" fill="black"/>
<path fill-rule="evenodd" clip-rule="evenodd" d="M6 6.90909L8 20H16L18 6.90909H6ZM12.5 10.5455C12.5 10.2693 12.2761 10.0455 12 10.0455C11.7239 10.0455 11.5 10.2693 11.5 10.5455V16.3636C11.5 16.6398 11.7239 16.8636 12 16.8636C12.2761 16.8636 12.5 16.6398 12.5 16.3636V10.5455ZM9.27615 10.0465C9.54779 10.0043 9.7936 10.1935 9.82517 10.4691L10.4918 16.2873C10.5234 16.5629 10.3288 16.8205 10.0572 16.8626C9.78552 16.9048 9.53971 16.7155 9.50813 16.44L8.84147 10.6218C8.80989 10.3462 9.0045 10.0886 9.27615 10.0465ZM15.1585 10.6218C15.1901 10.3462 14.9955 10.0886 14.7238 10.0465C14.4522 10.0043 14.2064 10.1935 14.1748 10.4691L13.5081 16.2873C13.4766 16.5629 13.6712 16.8205 13.9428 16.8626C14.2145 16.9048 14.4603 16.7155 14.4918 16.44L15.1585 10.6218Z" fill="black"/>
</svg>

<svg xmlns="http://www.w3.org/2000/svg" viewBox="0 0 24 24" fill="currentColor">
  <path fill-rule="evenodd" d="M5.25 6.91A.75.75 0 016 6.16h12a.75.75 0 010 1.5H6a.75.75 0 01-.75-.75z" clip-rule="evenodd"/>
  <path fill-rule="evenodd" d="M11.333 4.75c-.69 0-1.25.56-1.25 1.25v.91h-1.5V6a2.75 2.75 0 012.75-2.75h1.334A2.75 2.75 0 0115.417 6v.91h-1.5V6c0-.69-.56-1.25-1.25-1.25h-1.334zM6 6.91L8 20h8l2-13.09H6zm6.5 3.636a.5.5 0 10-1 0v5.818a.5.5 0 101 0v-5.819zm-3.224-.5a.476.476 0 01.55.423l.666 5.818a.525.525 0 01-.435.576.477.477 0 01-.549-.423l-.667-5.818a.525.525 0 01.435-.575zm5.883.576a.525.525 0 00-.435-.575.476.476 0 00-.55.422l-.666 5.818a.525.525 0 00.435.576.476.476 0 00.549-.423l.666-5.818z" clip-rule="evenodd"/>
</svg>
